public/Clip path group (3).svg

<svg width="48" height="48" viewBox="0 0 48 48" fill="none" xmlns="http://www.w3.org/2000/svg">
<mask id="mask0_1104_144" style="mask-type:luminance" maskUnits="userSpaceOnUse" x="0" y="0" width="48" height="48">
<path d="M48 0H0V48H48V0Z" fill="white"/>
</mask>
<g mask="url(#mask0_1104_144)">
<path fill-rule="evenodd" clip-rule="evenodd" d="M4.4171 24.1013C1.99626 24.582 0.171422 26.718 0.171422 29.28L0.171421 42.72C0.171421 45.636 2.53536 48 5.45143 48H18.8914C21.5136 48 23.6894 46.0884 24.1013 43.5828C24.582 46.0037 26.718 47.8286 29.28 47.8286H42.72C45.636 47.8286 48 45.4646 48 42.5486V29.1086C48 26.4864 46.0884 24.3106 43.583 23.8987C46.0037 23.4179 47.8286 21.282 47.8286 18.72V5.28C47.8286 2.36394 45.4646 7.14946e-07 42.5486 5.87482e-07L29.1086 0C26.4864 -1.1462e-07 24.3106 1.91151 23.8987 4.4171C23.4179 1.99627 21.2821 0.171427 18.72 0.171427H5.28C2.36394 0.171427 0 2.53536 0 5.45143V18.8914C0 21.5136 1.91151 23.6894 4.4171 24.1013Z" fill="#007BFF"/>
</g>
</svg>

<svg xmlns="http://www.w3.org/2000/svg" width="48" height="48" fill="none"><mask id="a" width="48" height="48" x="0" y="0" maskUnits="userSpaceOnUse" style="mask-type:luminance"><path fill="#fff" d="M48 0H0v48h48z"/></mask><g mask="url(#a)"><path fill="#007BFF" fill-rule="evenodd" d="M4.417 24.101A5.28 5.28 0 0 0 .171 29.28v13.44A5.28 5.28 0 0 0 5.451 48h13.44a5.28 5.28 0 0 0 5.21-4.417 5.28 5.28 0 0 0 5.179 4.246h13.44a5.28 5.28 0 0 0 5.28-5.28v-13.44a5.28 5.28 0 0 0-4.417-5.21 5.28 5.28 0 0 0 4.246-5.179V5.28A5.28 5.28 0 0 0 42.549 0h-13.44a5.28 5.28 0 0 0-5.21 4.417A5.28 5.28 0 0 0 18.72.171H5.28A5.28 5.28 0 0 0 0 5.451v13.44a5.28 5.28 0 0 0 4.417 5.21" clip-rule="evenodd"/></g></svg>
